map_marker_monochrome/openmoji_sweat_droplets.svg

<svg xmlns="http://www.w3.org/2000/svg" width="24" height="24" viewBox="0 0 24 24"> <g transform="translate(0.0 1.0345444740381584) scale(0.4647788370238097)">
  
  <g
     id="line"
     transform="translate(-8.9546715,-12.453786)">
    <path
       fill="none"
       stroke="#000"
       stroke-linecap="round"
       stroke-linejoin="round"
       stroke-miterlimit="10"
       stroke-width="2"
       d="m 34.7197,47.7793 c -1.5285,3.0359 -4.1723,5.4814 -7.6302,6.6234 -3.4578,1.142 -7.0381,0.7521 -10.0626,-0.7418 -2.9899,-1.5053 -5.4468,-4.1837 -6.5888,-7.6416 -1.8044,-5.4634 1.9518,-14.5273 4.6645,-21.0607 0.4406,-1.1043 0.8696,-2.128 1.2407,-3.0943 0.8737,0.5552 1.8279,1.1221 2.8281,1.7121 6.0702,3.6327 14.4743,8.6422 16.2901,14.1402 1.142,3.4579 0.7521,7.0382 -0.7418,10.0627 z"
       id="path2" />
    <path
       fill="none"
       stroke="#000"
       stroke-linecap="round"
       stroke-linejoin="round"
       stroke-miterlimit="10"
       stroke-width="2"
       d="m 54.0424,14.6812 c 1.8757,1.0513 3.3489,2.6219 4.3163,4.4546 1.2807,2.4715 1.6342,5.3998 0.732,8.2423 -0.9022,2.8425 -2.8796,5.031 -5.3227,6.3207 -2.4341,1.2613 -5.3907,1.6058 -8.2333,0.7036 -4.4913,-1.4254 -8.7024,-8.2688 -11.7352,-13.2051 -0.5212,-0.8225 -0.9946,-1.5985 -1.4575,-2.3086 0.7878,-0.3132 1.622,-0.6742 2.4937,-1.0546 2.3743,-1.0184 5.1529,-2.2134 7.904,-3.0977 m 9.6448,-0.8069 c 0.5824,0.2066 1.1357,0.459 1.6579,0.7517 M 52.038,13.8131 c 0.1166,0.037 0.2321,0.0758 0.3465,0.1164 m -2.3751,-0.4619 c 0.722,0.0365 1.4026,0.1469 2.0287,0.3456 m -2.4678,-0.3588 c 0.148,0.0015 0.2944,0.0059 0.4391,0.0132 m -1.5129,0.0222 c 0.3657,-0.0267 0.7241,-0.039 1.0738,-0.0354 m -2.1291,0.1481 c 0.3576,-0.0495 0.7097,-0.0875 1.0553,-0.1127 m -1.7366,0.2195 c 0.229,-0.0399 0.4562,-0.0757 0.6813,-0.1068 m -2.2299,0.4315 c 0.5232,-0.1267 1.0405,-0.2361 1.5486,-0.3247 m -2.4127,0.5476 c 0.2895,-0.0791 0.5777,-0.1536 0.8641,-0.2229 m -1.2977,0.3445 c 0.1448,-0.0416 0.2894,-0.0822 0.4336,-0.1216 m -1.6075,0.4795 c 0.3923,-0.1261 0.784,-0.2459 1.1739,-0.3579"
       id="path4" />
    <path
       fill="none"
       stroke="#000"
       stroke-linecap="round"
       stroke-linejoin="round"
       stroke-miterlimit="10"
       stroke-width="2"
       d="m 59.1155,51.0307 c -0.0551,2.0123 -0.8567,3.9888 -2.4228,5.4715 -1.5662,1.4827 -3.5836,2.1751 -5.581,2.1357 -1.9818,-0.0542 -3.9732,-0.8715 -5.4559,-2.4377 -2.3427,-2.4745 -2.611,-8.2791 -2.8016,-12.4644 -0.0418,-0.7029 -0.0696,-1.3597 -0.1139,-1.9711 0.6081,0.0777 1.2624,0.1413 1.9471,0.2058 4.1686,0.4192 9.935,0.9889 12.2925,3.4791 1.4826,1.5662 2.175,3.5837 2.1356,5.5811 z"
       id="path6" />
  </g>
</g></svg>

<svg xmlns="http://www.w3.org/2000/svg" width="24" height="24" viewBox="0 0 24 24"> <g transform="scale(0.333333333)">  <g id="line">
    <path fill="none" stroke="#000000" stroke-linecap="round" stroke-linejoin="round" stroke-miterlimit="10" stroke-width="2" d="M34.7197,47.7793c-1.5285,3.0359-4.1723,5.4814-7.6302,6.6234c-3.4578,1.142-7.0381,0.7521-10.0626-0.7418 c-2.9899-1.5053-5.4468-4.1837-6.5888-7.6416c-1.8044-5.4634,1.9518-14.5273,4.6645-21.0607 c0.4406-1.1043,0.8696-2.128,1.2407-3.0943c0.8737,0.5552,1.8279,1.1221,2.8281,1.7121 c6.0702,3.6327,14.4743,8.6422,16.2901,14.1402C36.6035,41.1745,36.2136,44.7548,34.7197,47.7793z"/>
    <path fill="none" stroke="#000000" stroke-linecap="round" stroke-linejoin="round" stroke-miterlimit="10" stroke-width="2" d="M54.0424,14.6812c1.8757,1.0513,3.3489,2.6219,4.3163,4.4546c1.2807,2.4715,1.6342,5.3998,0.732,8.2423 s-2.8796,5.031-5.3227,6.3207c-2.4341,1.2613-5.3907,1.6058-8.2333,0.7036c-4.4913-1.4254-8.7024-8.2688-11.7352-13.2051 c-0.5212-0.8225-0.9946-1.5985-1.4575-2.3086c0.7878-0.3132,1.622-0.6742,2.4937-1.0546c2.3743-1.0184,5.1529-2.2134,7.904-3.0977 M52.3845,13.9295c0.5824,0.2066,1.1357,0.459,1.6579,0.7517 M52.038,13.8131c0.1166,0.037,0.2321,0.0758,0.3465,0.1164 M50.0094,13.4676c0.722,0.0365,1.4026,0.1469,2.0287,0.3456 M49.5703,13.4544c0.148,0.0015,0.2944,0.0059,0.4391,0.0132 M48.4965,13.4898c0.3657-0.0267,0.7241-0.039,1.0738-0.0354 M47.4412,13.6025c0.3576-0.0495,0.7097-0.0875,1.0553-0.1127 M46.7599,13.7093c0.229-0.0399,0.4562-0.0757,0.6813-0.1068 M45.2113,14.034c0.5232-0.1267,1.0405-0.2361,1.5486-0.3247 M44.3472,14.2569c0.2895-0.0791,0.5777-0.1536,0.8641-0.2229 M43.9136,14.3785c0.1448-0.0416,0.2894-0.0822,0.4336-0.1216 M42.7397,14.7364c0.3923-0.1261,0.784-0.2459,1.1739-0.3579"/>
    <path fill="none" stroke="#000000" stroke-linecap="round" stroke-linejoin="round" stroke-miterlimit="10" stroke-width="2" d="M59.1155,51.0307c-0.0551,2.0123-0.8567,3.9888-2.4228,5.4715c-1.5662,1.4827-3.5836,2.1751-5.581,2.1357 c-1.9818-0.0542-3.9732-0.8715-5.4559-2.4377c-2.3427-2.4745-2.611-8.2791-2.8016-12.4644 c-0.0418-0.7029-0.0696-1.3597-0.1139-1.9711c0.6081,0.0777,1.2624,0.1413,1.9471,0.2058 c4.1686,0.4192,9.935,0.9889,12.2925,3.4791C58.4625,47.0158,59.1549,49.0333,59.1155,51.0307z"/>
  </g></g></svg>
